X:1
T:Wedding March
T:Wedding March
T:Mendelssohn
C:Mendelssohn
%%score 1 2 3
L:1/8
Q:1/4=100
M:4/4
K:C
V:1 treble nm="Dwarsfluit" snm="Fl."
V:2 treble nm="Dwarsfluit" snm="Fl."
V:3 treble transpose=-2 nm="Klarinet in B♭" snm="B♭ Kl."
V:1
 z2 | z8 | z8 | z8 | G2 (3GGG G2 (3GGG |"Am6" c'4"B" b3 ^f |"B7" a2 g2"D7" f2 d2 | %7
"C" c4"G7" d2 G>e |"C" e2 CE Gceg |"Am6" c'4"B" b3 ^f |"B7" a2 g2"D7" f2 d2 |"C" c4"G7" e2 d>e | %12
"C" d4 c2 (3GGG | G2 (3EGc e2 (3Gce | g2 (3Gce g2 (3ceg |"Am6" c'4"B" b3 ^f |"B7" a2 g2"D7" f2 d2 | %17
"C" c4"G7" d2 G>e |"C" e2 CE Gceg |"Am6" c'4"B" b3 ^f |"B7" a2 g2"D7" f2 d2 |"C" c4"G7" e2 d>e | %22
"C" d4 c2 z2 |] %23
V:2
 z2 | z8 | z8 | E2 (3EEE E2 (3EEE | E2 (3EEE E2 (3EEE | ^f4 f3 f | (^f2 e2) d2 A2 | c4 d2 G>e | %8
 e2 CE Gceg | e4 ^d3 d | ^f2 e2 d2 A2 | G3 G/G/ c2 B2 | B4 c2 (3ccc | c2 (3EGc c2 (3Gce | %14
 e2 (3eee e2 e2 | ^f4 f3 f | (^f2 e2) d2 A2 | c4 d2 G>e | e2 CE Gceg | e4 ^d3 d | ^f2 e2 d2 A2 | %21
 G3 G/G/ c2 B2 | B4 c2 z2 |] %23
V:3
[K:D] (3DDD | D6 (3DDD | D6 (3DDD | D2 (3DDD D2 (3DDD | D2 (3DDD D2 (3DDD | d4 c3 z | %6
 (B2 A2) G2 E2 | D4 A,4 | D2 D2 A2 f2 | D4 C3 z | (B2 A2) G2 E2 | D4 F4 | E4 !breath!D2 (3DDD | %13
 D2 (3DDD F2 (3FFF | A2 (3AAA A2 A2 | d4 c3 z | (B2 A2) G2 E2 | D4 A,4 | D2 D2 A2 f2 | D4 C3 z | %20
 (B2 A2) G2 E2 | D4 F4 | E4 !breath!D2 z2 |] %23

